rospo-newyear-dark/symbolic/categories/slideshow-symbolic.svg

<svg height="16" width="16" xmlns="http://www.w3.org/2000/svg"><path d="m7.5 1c-3.59 0-6.5 2.91-6.5 6.5s2.91 6.5 6.5 6.5 6.5-2.91 6.5-6.5-2.91-6.5-6.5-6.5zm0 1c3.04 0 5.5 2.46 5.5 5.5s-2.46 5.5-5.5 5.5-5.5-2.46-5.5-5.5 2.46-5.5 5.5-5.5zm-.5 2v3h-2.25v1h3.25v-4z" fill="#d3dae3"/></svg>

<svg xmlns="http://www.w3.org/2000/svg" width="16" height="16" version="1.1">
 <path style="fill:#d3dae3" d="M 7.5,1 C 3.91,1 1,3.91 1,7.5 1,11.09 3.91,14 7.5,14 11.09,14 14,11.09 14,7.5 14,3.91 11.09,1 7.5,1 Z M 7.5,2 C 10.54,2 13,4.46 13,7.5 13,10.54 10.54,13 7.5,13 4.46,13 2,10.54 2,7.5 2,4.46 4.46,2 7.5,2 Z M 7,4 V 7 H 4.75 V 8 H 8 V 4 Z"/>
</svg>
